!!!OTL: Nobody Knows the Trouble I've Seen
!!!ARE: United States of America
!!!AGN: Negro Spiritual
!!!AMD: Pentatonic
**kern
*>[A,B,A]
*>A
=1-
*clefG2
*k[b-]
*met(C)
*M4/4
*MM72
{8a/
4c/
8d/
4.f/
8g/
=2
8a/L
8a/J
4a/
2a/}
=3
{8a/
4c/
8d/
4f/
4f/
=4
4d/
[4c/
2c/]}
=5
{8a/
4c/
8d/
4.f/
8g/
=6
8a/L
8a/J
4a/
2a/}
=7
{4.cc\
8a/
4g/
4a/
=8
4f/
2f/}
!! Fine
==||
*>B
{4a/
=9
4cc\
4cc\
4cc\
4a/
=10
4cc\
4cc\
2a/}
=11
{2cc\
2a/
=12
2.g/}
{4a/
=13
4cc\
4cc\
4cc\
4a/
=14
4cc\
4cc\
(8a/L
8g/J
4f/)}
=15
{2a/
2g/
=16
1f}
!! Da Capo al Fine
==
*-
